Newaita-dark/actions/22/folder-sync.svg

<svg height="22" viewBox="0 0 22 22" width="22" xmlns="http://www.w3.org/2000/svg"><g fill="#e0e0e0"><path d="m9.484375 2.902344c-.769531.003906-1.597656.046875-2.386719.4375-.769531.386718-1.347656 1.191406-1.554687 2.289062h-1.90625c-1.007813 0-1.816407.8125-1.816407 1.820313v10.003906c0 1.007813.808594 1.820313 1.816407 1.820313h7.277343v-1.820313h-6.367187c-.503906 0-.910156-.40625-.910156-.910156v-8.183594c0-.503906.40625-.910156.910156-.910156h.996094c.207031 1.097656.785156 1.902343 1.554687 2.289062.972656.484375 2 .433594 2.90625.433594h8.1875v.003906h1.820313v-.789062c.011719-.082031.011719-.160157 0-.238281v-1.699219c0-1.007813-.8125-1.820313-1.820313-1.820313v2.734375h-8.1875c-.90625 0-1.699218-.050781-2.09375-.246093-.394531-.199219-.636718-.414063-.636718-1.578126 0-1.164062.242187-1.378906.636718-1.578124.394532-.195313 1.1875-.246094 2.09375-.246094.328125.003906.632813-.167969.796875-.449219.164063-.28125.164063-.628906 0-.910156-.164062-.285157-.46875-.457031-.796875-.449219-.167968 0-.34375-.003906-.519531-.003906zm0 0"/><path d="m10.003906 2.902344v1.816406h7.277344c.503906 0 .910156.40625.910156.910156v4.546875h1.820313v-5.457031c0-1.007812-.8125-1.816406-1.820313-1.816406zm0 0"/><path d="m16.207031 12.003906c-.875.039063-1.738281.398438-2.402343 1.0625-.757813.757813-1.117188 1.777344-1.0625 2.773438.015624.324218.203124.621094.496093.769531.289063.144531.636719.125.910157-.054687.273437-.179688.425781-.492188.402343-.816407-.027343-.5.144531-1.003906.535157-1.394531.386718-.386719.890624-.558594 1.390624-.53125.328126.023438.640626-.132812.820313-.402344.179687-.273437.199219-.621094.050781-.914062-.148437-.289063-.441406-.476563-.769531-.492188-.125-.007812-.25-.007812-.371094 0zm0 0"/><path d="m19.125 14.5625c-.253906-.007812-.5.09375-.679688.277344-.175781.1875-.265624.4375-.246093.691406.027343.5-.144531 1.003906-.535157 1.394531-.390624.386719-.890624.558594-1.390624.53125-.328126-.023437-.640626.132813-.820313.40625-.179687.269531-.199219.617188-.050781.910157.148437.289062.441406.476562.765625.492187.996093.054687 2.019531-.304687 2.777343-1.0625.757813-.757813 1.117188-1.777344 1.058594-2.773437-.019531-.472657-.402344-.851563-.878906-.867188zm0 0"/></g></svg>

<?xml version="1.0" encoding="UTF-8"?>
<svg xmlns="http://www.w3.org/2000/svg" xmlns:xlink="http://www.w3.org/1999/xlink" width="22px" height="22px" viewBox="0 0 22 22" version="1.1">
<g id="surface1">
<path style=" stroke:none;fill-rule:nonzero;fill:rgb(87.843138%,87.843138%,87.843138%);fill-opacity:1;" d="M 9.484375 2.902344 C 8.714844 2.90625 7.886719 2.949219 7.097656 3.339844 C 6.328125 3.726562 5.75 4.53125 5.542969 5.628906 L 3.636719 5.628906 C 2.628906 5.628906 1.820312 6.441406 1.820312 7.449219 L 1.820312 17.453125 C 1.820312 18.460938 2.628906 19.273438 3.636719 19.273438 L 10.914062 19.273438 L 10.914062 17.453125 L 4.546875 17.453125 C 4.042969 17.453125 3.636719 17.046875 3.636719 16.542969 L 3.636719 8.359375 C 3.636719 7.855469 4.042969 7.449219 4.546875 7.449219 L 5.542969 7.449219 C 5.75 8.546875 6.328125 9.351562 7.097656 9.738281 C 8.070312 10.222656 9.097656 10.171875 10.003906 10.171875 L 18.191406 10.171875 L 18.191406 10.175781 L 20.011719 10.175781 L 20.011719 9.386719 C 20.023438 9.304688 20.023438 9.226562 20.011719 9.148438 L 20.011719 7.449219 C 20.011719 6.441406 19.199219 5.628906 18.191406 5.628906 L 18.191406 8.363281 L 10.003906 8.363281 C 9.097656 8.363281 8.304688 8.3125 7.910156 8.117188 C 7.515625 7.917969 7.273438 7.703125 7.273438 6.539062 C 7.273438 5.375 7.515625 5.160156 7.910156 4.960938 C 8.304688 4.765625 9.097656 4.714844 10.003906 4.714844 C 10.332031 4.71875 10.636719 4.546875 10.800781 4.265625 C 10.964844 3.984375 10.964844 3.636719 10.800781 3.355469 C 10.636719 3.070312 10.332031 2.898438 10.003906 2.90625 C 9.835938 2.90625 9.660156 2.902344 9.484375 2.902344 Z M 9.484375 2.902344 "/>
<path style=" stroke:none;fill-rule:nonzero;fill:rgb(87.843138%,87.843138%,87.843138%);fill-opacity:1;" d="M 10.003906 2.902344 L 10.003906 4.71875 L 17.28125 4.71875 C 17.785156 4.71875 18.191406 5.125 18.191406 5.628906 L 18.191406 10.175781 L 20.011719 10.175781 L 20.011719 4.71875 C 20.011719 3.710938 19.199219 2.902344 18.191406 2.902344 Z M 10.003906 2.902344 "/>
<path style=" stroke:none;fill-rule:nonzero;fill:rgb(87.843138%,87.843138%,87.843138%);fill-opacity:1;" d="M 16.207031 12.003906 C 15.332031 12.042969 14.46875 12.402344 13.804688 13.066406 C 13.046875 13.824219 12.6875 14.84375 12.742188 15.839844 C 12.757812 16.164062 12.945312 16.460938 13.238281 16.609375 C 13.527344 16.753906 13.875 16.734375 14.148438 16.554688 C 14.421875 16.375 14.574219 16.0625 14.550781 15.738281 C 14.523438 15.238281 14.695312 14.734375 15.085938 14.34375 C 15.472656 13.957031 15.976562 13.785156 16.476562 13.8125 C 16.804688 13.835938 17.117188 13.679688 17.296875 13.410156 C 17.476562 13.136719 17.496094 12.789062 17.347656 12.496094 C 17.199219 12.207031 16.90625 12.019531 16.578125 12.003906 C 16.453125 11.996094 16.328125 11.996094 16.207031 12.003906 Z M 16.207031 12.003906 "/>
<path style=" stroke:none;fill-rule:nonzero;fill:rgb(87.843138%,87.843138%,87.843138%);fill-opacity:1;" d="M 19.125 14.5625 C 18.871094 14.554688 18.625 14.65625 18.445312 14.839844 C 18.269531 15.027344 18.179688 15.277344 18.199219 15.53125 C 18.226562 16.03125 18.054688 16.535156 17.664062 16.925781 C 17.273438 17.3125 16.773438 17.484375 16.273438 17.457031 C 15.945312 17.433594 15.632812 17.589844 15.453125 17.863281 C 15.273438 18.132812 15.253906 18.480469 15.402344 18.773438 C 15.550781 19.0625 15.84375 19.25 16.167969 19.265625 C 17.164062 19.320312 18.1875 18.960938 18.945312 18.203125 C 19.703125 17.445312 20.0625 16.425781 20.003906 15.429688 C 19.984375 14.957031 19.601562 14.578125 19.125 14.5625 Z M 19.125 14.5625 "/>
</g>
</svg>
